packages/webapp/public/images/template-logos/gong-oauth.svg

<svg width="62" height="62" viewBox="0 0 62 62" fill="none" xmlns="http://www.w3.org/2000/svg">
<rect width="62" height="62" rx="10" fill="white"/>
<g clip-path="url(#clip0_1170_582)">
<path d="M50.4755 27.8451H38.6453C37.9604 27.8451 37.4623 28.5301 37.6906 29.1735L40.534 36.5414C40.6585 36.8735 40.4095 37.2263 40.0566 37.2055L36.4246 36.9772C36.2585 36.9565 36.0925 37.0395 36.0095 37.1848L33.1868 41.1904C33.0415 41.4187 32.7302 41.5018 32.5019 41.3357L28.3095 38.4923C28.1434 38.3885 27.9151 38.3885 27.7698 38.4923L21.9585 42.415C21.5849 42.664 21.0868 42.3112 21.2113 41.8753L22.8302 36.1055C22.8925 35.8565 22.7887 35.6282 22.5396 35.5244L19.4679 34.2791C19.1566 34.1546 19.0736 33.781 19.2812 33.5319L21.9793 30.1697C22.1038 30.0036 22.1246 29.7753 22 29.5885L19.717 26.2885C19.5095 25.9772 19.6963 25.5621 20.0906 25.5414L23.6396 25.2716C23.8887 25.2508 24.0963 25.0225 24.0963 24.7527L23.8057 19.7923C23.7849 19.4395 24.1378 19.1904 24.4906 19.315L28.8906 21.1414C29.0774 21.2244 29.3057 21.1829 29.4302 21.0168L32.4604 17.6338C32.7095 17.364 33.1453 17.447 33.2906 17.7584L35.117 22.4489C35.3661 23.0301 36.0925 23.2376 36.5906 22.8433L43.7095 17.5508C44.5189 16.9489 44 15.6621 43.0038 15.8074L38.3132 16.4301C38.0849 16.4716 37.8774 16.3263 37.7944 16.1187L35.3246 9.78854C35.0547 9.12439 34.2038 8.95835 33.7057 9.49798L28.351 15.3093C28.2057 15.4546 27.9981 15.4961 27.8113 15.4131L20.7547 12.4451C20.1321 12.1961 19.4264 12.6319 19.4057 13.3168L19.1566 20.6018C19.1359 20.8508 18.9491 21.0584 18.7 21.0584L12.2661 21.4735C11.5189 21.515 11.1038 22.3659 11.5189 22.9885L15.7944 29.298C15.9189 29.4848 15.8981 29.7131 15.7529 29.8999L11.4151 34.881C10.9793 35.3791 11.1661 36.147 11.7679 36.4168L16.7491 38.5753C16.9774 38.6791 17.0812 38.9074 17.0189 39.1357L13.8227 51.5885C13.5944 52.481 14.5906 53.1452 15.3378 52.6263L27.3132 44.0338C27.4793 43.9301 27.7076 43.9093 27.8736 44.0338L33.3321 47.8734C33.7887 48.2055 34.3906 48.0602 34.7019 47.6244L38.1057 42.3942C38.2095 42.2282 38.3963 42.1451 38.5623 42.1867L46.7189 43.1621C47.383 43.2659 48.0472 42.7055 47.7981 42.1036L44.3944 33.3244C44.2906 33.0753 44.3944 32.8263 44.6849 32.681L50.8906 29.7546C51.8453 29.2565 51.5132 27.8451 50.4755 27.8451Z" fill="#8039E9"/>
</g>
<defs>
<clipPath id="clip0_1170_582">
<rect width="40.4717" height="44" fill="white" transform="translate(11 9)"/>
</clipPath>
</defs>
</svg>

<svg xmlns="http://www.w3.org/2000/svg" width="62" height="62" fill="none"><g clip-path="url(#A)"><path d="M50.476 27.845h-11.83a1.01 1.01 0 0 0-.955 1.328l2.843 7.368c.124.332-.124.685-.477.664l-3.632-.228a.42.42 0 0 0-.415.208l-2.823 4.006c-.145.228-.457.311-.685.145l-4.192-2.843c-.166-.104-.394-.104-.54 0l-5.811 3.923c-.374.249-.872-.104-.747-.54l1.619-5.77c.062-.249-.042-.477-.291-.581l-3.072-1.245a.47.47 0 0 1-.187-.747l2.698-3.362c.125-.166.145-.394.021-.581l-2.283-3.3c-.207-.311-.021-.726.374-.747l3.549-.27a.52.52 0 0 0 .457-.519l-.291-4.96c-.021-.353.332-.602.685-.477l4.4 1.826c.187.083.415.041.54-.125l3.03-3.383a.51.51 0 0 1 .83.125l1.826 4.69c.249.581.976.789 1.474.394l7.119-5.292c.809-.602.291-1.889-.706-1.743l-4.691.623c-.228.041-.436-.104-.519-.311l-2.47-6.33c-.27-.664-1.121-.83-1.619-.291l-5.355 5.811c-.145.145-.353.187-.54.104l-7.057-2.968c-.623-.249-1.328.187-1.349.872l-.249 7.285c-.021.249-.207.457-.457.457l-6.434.415c-.747.041-1.162.892-.747 1.515l4.275 6.31c.125.187.104.415-.041.602l-4.338 4.981c-.436.498-.249 1.266.353 1.536l4.981 2.158c.228.104.332.332.27.56l-3.196 12.453c-.228.892.768 1.557 1.515 1.038l11.975-8.593c.166-.104.394-.124.56 0l5.458 3.84c.457.332 1.059.187 1.37-.249l3.404-5.23c.104-.166.291-.249.457-.207l8.157.975c.664.104 1.328-.457 1.079-1.059l-3.404-8.779c-.104-.249 0-.498.291-.643l6.206-2.926c.955-.498.623-1.91-.415-1.91z" fill="#8039e9"/></g><defs><clipPath id="A"><path fill="#fff" transform="translate(11 9)" d="M0 0h40.472v44H0z"/></clipPath></defs></svg>
